src/assets/images/share-icon.svg

<svg fill="none" height="25" viewBox="0 0 24 25" width="24" xmlns="http://www.w3.org/2000/svg" xmlns:xlink="http://www.w3.org/1999/xlink"><clipPath id="a"><path d="m0 0h24v25h-24z"/></clipPath><g clip-path="url(#a)"><path d="m13.576 17.9906-5.10998-2.9031c-.49051.5072-1.11419.8517-1.79241.9902-.67823.1385-1.38063.0647-2.01867-.212-.63803-.2767-1.18313-.744-1.56657-1.343-.38345-.599-.58806-1.3028-.58806-2.0227 0-.72.20461-1.4238.58806-2.0227.38344-.59901.92854-1.06632 1.56657-1.34306.63804-.27673 1.34044-.3505 2.01867-.212.67822.13849 1.3019.48305 1.79241.99023l5.10998-2.90312c-.1752-.85653-.0487-1.75015.3566-2.51745s1.0622-1.357 1.8505-1.66127c.7884-.30427 1.6555-.30277 2.4429.00422.7874.307 1.4424.89897 1.8452 1.66766.4029.7687.5266 1.66275.3486 2.51866-.178.85592-.6458 1.6165-1.3179 2.14266s-1.5035.78273-2.3423.72281c-.8387-.05993-1.6288-.43235-2.2256-1.04917l-5.10998 2.90313c.10193.5007.10193 1.0181 0 1.5187l5.10998 2.9032c.5968-.6168 1.3869-.9893 2.2256-1.0492.8388-.0599 1.6702.1967 2.3423.7228.6721.5262 1.1399 1.2868 1.3179 2.1427s.0543 1.7499-.3486 2.5186c-.4028.7687-1.0578 1.3607-1.8452 1.6677s-1.6545.3085-2.4429.0042c-.7883-.3043-1.4452-.894-1.8505-1.6613s-.5318-1.6609-.3566-2.5174z" fill="#000"/></g></svg>

<svg width="24" height="25" viewBox="0 0 24 25" fill="none" xmlns="http://www.w3.org/2000/svg">
<g clip-path="url(#clip0_4770_5889)">
<path d="M13.576 17.9906L8.46602 15.0875C7.97551 15.5947 7.35183 15.9392 6.67361 16.0777C5.99538 16.2162 5.29298 16.1424 4.65494 15.8657C4.01691 15.589 3.47181 15.1217 3.08837 14.5227C2.70492 13.9237 2.50031 13.2199 2.50031 12.5C2.50031 11.78 2.70492 11.0762 3.08837 10.4773C3.47181 9.87829 4.01691 9.41098 4.65494 9.13424C5.29298 8.85751 5.99538 8.78374 6.67361 8.92224C7.35183 9.06073 7.97551 9.40529 8.46602 9.91247L13.576 7.00935C13.4008 6.15282 13.5273 5.2592 13.9326 4.4919C14.3379 3.7246 14.9948 3.1349 15.7831 2.83063C16.5715 2.52636 17.4386 2.52786 18.226 2.83485C19.0134 3.14185 19.6684 3.73382 20.0712 4.50251C20.4741 5.27121 20.5978 6.16526 20.4198 7.02117C20.2418 7.87709 19.774 8.63767 19.1019 9.16383C18.4298 9.68999 17.5984 9.94656 16.7596 9.88664C15.9209 9.82671 15.1308 9.45429 14.534 8.83747L9.42402 11.7406C9.52595 12.2413 9.52595 12.7587 9.42402 13.2593L14.534 16.1625C15.1308 15.5457 15.9209 15.1732 16.7596 15.1133C17.5984 15.0534 18.4298 15.31 19.1019 15.8361C19.774 16.3623 20.2418 17.1229 20.4198 17.9788C20.5978 18.8347 20.4741 19.7287 20.0712 20.4974C19.6684 21.2661 19.0134 21.8581 18.226 22.1651C17.4386 22.4721 16.5715 22.4736 15.7831 22.1693C14.9948 21.865 14.3379 21.2753 13.9326 20.508C13.5273 19.7407 13.4008 18.8471 13.576 17.9906Z" fill="black"/>
</g>
<defs>
<clipPath id="clip0_4770_5889">
<rect width="24" height="25" fill="white"/>
</clipPath>
</defs>
</svg>
